dist/svgs/unicons/line/window.svg

<svg xmlns="http://www.w3.org/2000/svg" viewBox="0 0 24 24"><path d="M10 5a1 1 0 101 1 1 1 0 00-1-1zM6 5a1 1 0 101 1 1 1 0 00-1-1zm8 0a1 1 0 101 1 1 1 0 00-1-1zm6-4H4a3 3 0 00-3 3v16a3 3 0 003 3h16a3 3 0 003-3V4a3 3 0 00-3-3zm1 19a1 1 0 01-1 1H4a1 1 0 01-1-1v-9h18zm0-11H3V4a1 1 0 011-1h16a1 1 0 011 1z"/></svg>

<svg xmlns="http://www.w3.org/2000/svg" viewBox="0 0 24 24"><path d="M10,5a1,1,0,1,0,1,1A1,1,0,0,0,10,5ZM6,5A1,1,0,1,0,7,6,1,1,0,0,0,6,5Zm8,0a1,1,0,1,0,1,1A1,1,0,0,0,14,5Zm6-4H4A3,3,0,0,0,1,4V20a3,3,0,0,0,3,3H20a3,3,0,0,0,3-3V4A3,3,0,0,0,20,1Zm1,19a1,1,0,0,1-1,1H4a1,1,0,0,1-1-1V11H21ZM21,9H3V4A1,1,0,0,1,4,3H20a1,1,0,0,1,1,1Z"/></svg>
